X: 4066
T: SPORTING JAMIE
R: Strathspey.
%R: strathspey
B: James Kerr "Merry Melodies" v.4 p.10 #66
Z: 2016 John Chambers <jc:trillian.mit.edu>
M: C
L: 1/16
K: D
|:\
ff3 e3d (fa3) a4 | g3ef3d e3d cA3 |\
ff3 e3d (fa3) a4 | B3d cdef d6 g2 :|
|:\
fa3 a3g fa3 a3f | g3fe3d e3dc3A |\
fa3 a3g fa3 a3A | B3d cdef d4 d3g :|

%%sep 1 1 500
%%sep 1 1 500

